html/icons/phone.svg

<svg xmlns="http://www.w3.org/2000/svg" xmlns:xlink="http://www.w3.org/1999/xlink" viewBox="0 0 26 26" version="1.1">
<g id="surface1">
<path style=" " d="M 22.386719 18.027344 C 20.839844 16.703125 19.265625 15.898438 17.738281 17.222656 L 16.824219 18.019531 C 16.15625 18.601563 14.914063 21.3125 10.113281 15.785156 C 5.3125 10.269531 8.167969 9.410156 8.839844 8.835938 L 9.757813 8.035156 C 11.277344 6.710938 10.703125 5.042969 9.605469 3.324219 L 8.945313 2.285156 C 7.84375 0.574219 6.640625 -0.550781 5.117188 0.769531 L 4.292969 1.492188 C 3.617188 1.980469 1.734375 3.578125 1.277344 6.609375 C 0.726563 10.246094 2.464844 14.414063 6.4375 18.984375 C 10.40625 23.558594 14.296875 25.855469 17.976563 25.816406 C 21.035156 25.78125 22.886719 24.140625 23.464844 23.542969 L 24.289063 22.820313 C 25.8125 21.5 24.867188 20.152344 23.316406 18.828125 Z "></path>
</g>
</svg>

<?xml version="1.0" encoding="utf-8"?>
<!-- Generator: Adobe Illustrator 23.0.2, SVG Export Plug-In . SVG Version: 6.00 Build 0)  -->
<svg version="1.1" id="Layer_1" xmlns="http://www.w3.org/2000/svg" xmlns:xlink="http://www.w3.org/1999/xlink" x="0px" y="0px"
	 viewBox="0 0 26 26" style="enable-background:new 0 0 26 26;" xml:space="preserve">
<style type="text/css">
	.st0{fill:#FFFFFF;}
</style>
<g id="surface1">
	<path class="st0" d="M22.4,18c-1.5-1.3-3.1-2.1-4.6-0.8L16.8,18c-0.7,0.6-1.9,3.3-6.7-2.2c-4.8-5.5-1.9-6.4-1.3-6.9L9.8,8
		c1.5-1.3,0.9-3-0.2-4.7l-0.7-1C7.8,0.6,6.6-0.6,5.1,0.8L4.3,1.5C3.6,2,1.7,3.6,1.3,6.6C0.7,10.2,2.5,14.4,6.4,19
		c4,4.6,7.9,6.9,11.5,6.8c3.1,0,4.9-1.7,5.5-2.3l0.8-0.7c1.5-1.3,0.6-2.7-1-4L22.4,18z"/>
</g>
</svg>
